svg/vscode-codicons/layers.svg

<svg width="16" height="16" viewBox="0 0 16 16" xmlns="http://www.w3.org/2000/svg" fill="currentColor"><path fill-rule="evenodd" clip-rule="evenodd" d="M7.62706 1.08717L8.18535 1.08325L14.2762 5.1203L14.2727 5.95617L8.1818 9.91912L7.63062 9.91528L1.72152 5.95233L1.71796 5.12422L7.62706 1.08717ZM7.91335 2.10268L2.89198 5.53323L7.91329 8.90079L13.0891 5.5332L7.91335 2.10268ZM1.79257 8.5L7.63059 12.4153L8.18177 12.4191L14.2053 8.5H12.3716L7.91326 11.4008L3.58794 8.5H1.79257ZM7.63059 14.9153L1.79257 11H3.58794L7.91326 13.9008L12.3716 11H14.2053L8.18177 14.9191L7.63059 14.9153Z"/></svg>

<svg xmlns="http://www.w3.org/2000/svg" width="16" height="16" viewBox="0 0 16 16"><path fill-rule="evenodd" d="m7.627 1.087.558-.004 6.091 4.037-.003.836L8.182 9.92l-.551-.004-5.91-3.963-.003-.828 5.91-4.037Zm.286 1.016-5.021 3.43 5.021 3.368 5.176-3.368-5.176-3.43ZM1.793 8.5l5.838 3.915.55.004L14.206 8.5h-1.833l-4.459 2.9-4.325-2.9H1.793Zm5.838 6.415L1.793 11h1.795l4.325 2.9 4.459-2.9h1.833l-6.023 3.92-.551-.005Z" clip-rule="evenodd"/></svg>
